X: 30686
T: Orange And Blue, The
R: strathspey
M: 4/4
K: Dmajor
|:a>g|f<d d2 A<d d2|f>da>f d2 e>f|g<e e2 B<e e2|c>Ae>c A2 a>g|
f<d d2 A<d d2|f>da>f d2 (3fga|b>ga>f g>ef>d|e>c (3ABc d2:|
|:a>g|f<a a2 f<a a2|f>da>f d2 e>f|g<b b2 g<b b2|g>eb>g e2 a>g|
f<a a2 f<a a2|f>da>f d2 (3fga|b>ga>f g>ef>d|e>c (3ABc d2:|

